X:1
%
T:Goodman's Quadrilles Figure 4
M:2/4
L:1/8
R:Quadrille
S:James Goodman (1828?1896) music manuscript collection,
S:vol. 3, p. 174. Mid-19th century, County Cork
Z:AK/Fiddler’s Companion
K:D
A|ddff|a2 fd|ggab|b2a2|
ddff|a2 (g/f/).e/.d/|Bedc|e2 d:|
|:f|aaff|a/g/f/g/ eg|fg b/a/g/f/|f2e2|
aaff|a/g/f/g/ eg|f/g/a/g/ fe|e2 d:|]

